X: 35
T: No_41_The_Coming_of_the_Sun.krn
N: Derived from No_41_The_Coming_of_the_Sun.krn
%%abc-version 2.0
%%abcx-abcm2ps-target-version 5.9.1 (29 Sep 2008)
%%abc-creator hum2abc beta
%%abcx-conversion-date 2019/03/15 08:25:35
%%humdrum-veritas 3134716462
%%humdrum-veritas-data 634245158
%%linebreak <none>
%%barnumbers 0
L: 1/8
M: 3/4
K: Eb clef=bass
[K:clef=bass][M:3/4]E2E2E3/C/ | 
E2E2E z/ E/ ]|:  
[M:2/4]G2G/E/E | 
E2E/B,/B, | 
C3/C/ B, z | 
E2E/B,B,/ | 
G,G,E,2 | 
[M:3/4]G,E, E,G,/G,/ E, z/ G,/ | 
[M:2/4]C2CB,/B,/ | 
G,2E,2 | 
G,/G,/G,/G,/ E, z/ G,/ | 
C2C/B,G,/ | 
B,/G,3/ E, z | 
G,E, G,E,/E,/ | 
[M:3/4]B,G,/B,/ B,/G,3/ E, z/ E,/ | 
[M:2/4]C2C//G,3//B, | 
[M:3/4]G,2E,E, E, z | 
[M:2/4]G,/E,3/E,2 | 
G,/E,3/E,2 | 
z E, E, z/ E,/ :|]|:  
G2G/E/E | 
E2E/B,/B,/ z/ | 
C2C/B,/B, | 
B,G, E,E, | 
G,G, E, z | 
G,/E,/E, G,/E,3/ | 
G,G, E, z | 
G,/E,/E, E,/E,3/ | 
G,B,/G,/ E, z/ E,/ | 
C2C/G,B,/ | 
G,G, E, z/ E,/ | 
C2C/G,B,/ | 
G,G, E, z | 
G,E,/E,/ G,E, | 
[M:5/8]B,B,/G,/B,B,G, | 
G,/E,/E,E,2z | 
[M:2/4]G,/E,3/E,2 | 
G,/E,3/E,2 | 
z E, E, z/ E,/ :|]  
z E, E,3/E,/ | 
G2G/E/E | 
E2E/B,/B, | 
C3/C/ B, z | 
E2E/G,B,/ | 
G,G,E,2 | 
[M:3/4]G,E, G,/G,/G,/G,/ E, z/ G,/ | 
[M:2/4]C2CB,/B,/ | 
G,2E,2 | 
G,/G,/G,/G,/ E, z/ G,/ | 
C2C/B,G,/ | 
B,/G,3/ E, z | 
G,E, G,E,/E,/ | 
[M:3/4]B,G,/B,/ B,/G,3/ E, z/ E,/ | 
[M:2/4]C2C//G,3//B, | 
[M:3/4]G,2E,E, E, z | 
[M:2/4]G,/E,3/E,2 | 
B,B, G,/G,/E,/E,/ | 
[M:3/4]G,B, G,/E,3/ E, z | 
[M:2/4]E,G, E,C, | 
E,E, E,E, | 
[M:3/4]E,B, B,/G,3/ E, z | 
G,/E,/E, G,/E,/E,3//E,// G,B, | 
E,E, E,E, E,E, |]  



